public/images/logo/css.svg

<svg width="95" height="132" viewBox="0 0 95 132" fill="none" xmlns="http://www.w3.org/2000/svg">
<g clip-path="url(#clip0_0_207)">
<path d="M47.442 131.667L8.78072 121.091L0.165039 25.8757H94.8348L86.2102 121.077L47.442 131.667Z" fill="#264DE4"/>
<path d="M78.8266 115.014L86.1965 33.6607H47.5V123.572L78.8266 115.014Z" fill="#2965F1"/>
<path d="M19.9163 68.9749L20.9783 80.6527H47.5V68.9749H19.9163ZM17.7817 45.3389L18.859 57.0167H47.5V45.3389H17.7817ZM47.5 99.3035L47.4481 99.317L34.249 95.8053L33.4052 86.4918H21.5079L23.1682 104.828L47.4455 111.468L47.5 111.453V99.3035Z" fill="#EBEBEB"/>
<path d="M22.4453 0H36.7992V5.91477H28.4481V11.8295H36.8V17.7439H22.4453V0ZM39.6704 0H54.0246V5.14325H45.6732V6.17182H54.0246V18.0014H39.6707V12.6003H48.0222V11.5718H39.67L39.6704 0ZM56.8958 0H71.2501V5.14325H62.8986V6.17182H71.2501V18.0014H56.8958V12.6003H65.2473V11.5718H56.8962L56.8958 0Z" fill="black"/>
<path d="M75.008 68.9749L77.1474 45.3389H47.4591V57.0167H64.1591L63.0807 68.9749H47.4591V80.6527H62.0531L60.6771 95.798L47.4587 99.3133V111.462L71.7554 104.828L71.9335 102.855L74.7189 72.1107L75.008 68.9749Z" fill="white"/>
</g>
<defs>
<clipPath id="clip0_0_207">
<rect width="95" height="132" fill="white"/>
</clipPath>
</defs>
</svg>

<svg xmlns="http://www.w3.org/2000/svg" width="95" height="132" fill="none"><g clip-path="url(#a)"><path fill="#264DE4" d="M47.442 131.667 8.781 121.091.165 25.876h94.67l-8.625 95.201-38.768 10.59Z"/><path fill="#2965F1" d="m78.827 115.014 7.37-81.353H47.5v89.911l31.327-8.558Z"/><path fill="#EBEBEB" d="m19.916 68.975 1.062 11.678H47.5V68.975H19.916Zm-2.134-23.636 1.077 11.678H47.5V45.339H17.782ZM47.5 99.304l-.052.013-13.199-3.512-.844-9.313H21.508l1.66 18.336 24.278 6.64.054-.015v-12.15Z"/><path fill="#000" d="M22.445 0H36.8v5.915h-8.35v5.914H36.8v5.915H22.445V0ZM39.67 0h14.355v5.143h-8.352v1.029h8.352v11.83H39.67V12.6h8.351v-1.028H39.67V0Zm17.226 0H71.25v5.143H62.9v1.029h8.351v11.83H56.896V12.6h8.351v-1.028h-8.35L56.895 0Z"/><path fill="#fff" d="m75.008 68.975 2.14-23.636H47.458v11.678h16.7l-1.078 11.958H47.459v11.678h14.594l-1.376 15.145-13.218 3.515v12.149l24.296-6.634.178-1.973 2.786-30.744.289-3.136Z"/></g><defs><clipPath id="a"><path fill="#fff" d="M0 0h95v132H0z"/></clipPath></defs></svg>
